src/components/00-materials/images-raw/Hospital Bed.svg

<svg width="96" height="96" viewBox="0 0 96 96" fill="none" xmlns="http://www.w3.org/2000/svg">
<path d="M78 67H84M78 67V77C78 77.5304 78.2107 78.0391 78.5858 78.4142C78.9609 78.7893 79.4696 79 80 79H82C82.5304 79 83.0391 78.7893 83.4142 78.4142C83.7893 78.0391 84 77.5304 84 77V67M78 67H18M84 67V61M84 61C84 58.3478 82.9464 55.8043 81.0711 53.9289C79.1957 52.0536 76.6522 51 74 51H18V61H84ZM18 41C27.94 41 36 45.48 36 51M60 67V79M60 17V51M51 79H69M15 31C15.7956 31 16.5587 31.3161 17.1213 31.8787C17.6839 32.4413 18 33.2044 18 34V77C18 77.5304 17.7893 78.0391 17.4142 78.4142C17.0391 78.7893 16.5304 79 16 79H14C13.4696 79 12.9609 78.7893 12.5858 78.4142C12.2107 78.0391 12 77.5304 12 77V34C12 33.2044 12.3161 32.4413 12.8787 31.8787C13.4413 31.3161 14.2044 31 15 31ZM49 25V20C49 19.2044 49.3161 18.4413 49.8787 17.8787C50.4413 17.3161 51.2044 17 52 17H68C68.7956 17 69.5587 17.3161 70.1213 17.8787C70.6839 18.4413 71 19.2044 71 20V25H49ZM45 25H53V34C53 35.0609 52.5786 36.0783 51.8284 36.8284C51.0783 37.5786 50.0609 38 49 38C47.9391 38 46.9217 37.5786 46.1716 36.8284C45.4214 36.0783 45 35.0609 45 34V25ZM67 25H75V34C75 35.0609 74.5786 36.0783 73.8284 36.8284C73.0783 37.5786 72.0609 38 71 38C69.9391 38 68.9217 37.5786 68.1716 36.8284C67.4214 36.0783 67 35.0609 67 34V25Z" stroke="#00008F" stroke-width="2" stroke-linecap="round" stroke-linejoin="round"/>
</svg>

<svg width="96" height="96" viewBox="0 0 96 96" fill="none" xmlns="http://www.w3.org/2000/svg"><path d="M78 67h6m-6 0v10a2 2 0 002 2h2a2 2 0 002-2V67m-6 0H18m66 0v-6m0 0a10 10 0 00-10-10H18v10h66zM18 41c9.94 0 18 4.48 18 10m24 16v12m0-62v34m-9 28h18M15 31a3 3 0 013 3v43a2 2 0 01-2 2h-2a2 2 0 01-2-2V34a3 3 0 013-3zm34-6v-5a3 3 0 013-3h16a3 3 0 013 3v5H49zm-4 0h8v9a4 4 0 11-8 0v-9zm22 0h8v9a4 4 0 11-8 0v-9z" stroke="#00008F" stroke-width="2" stroke-linecap="round" stroke-linejoin="round"/></svg>
